material/.icons/material/weather-windy.svg

<svg xmlns="http://www.w3.org/2000/svg" viewBox="0 0 24 24"><path d="M4 10a1 1 0 01-1-1 1 1 0 011-1h8a2 2 0 002-2 2 2 0 00-2-2c-.55 0-1.05.22-1.41.59a.973.973 0 01-1.42 0c-.39-.39-.39-1.03 0-1.42C9.9 2.45 10.9 2 12 2a4 4 0 014 4 4 4 0 01-4 4H4m15 2a1 1 0 001-1 1 1 0 00-1-1c-.28 0-.53.11-.71.29a.996.996 0 01-1.41 0c-.38-.39-.38-1.02 0-1.41C17.42 8.34 18.17 8 19 8a3 3 0 013 3 3 3 0 01-3 3H5a1 1 0 01-1-1 1 1 0 011-1h14m-1 6H4a1 1 0 01-1-1 1 1 0 011-1h14a3 3 0 013 3 3 3 0 01-3 3c-.83 0-1.58-.34-2.12-.88-.38-.39-.38-1.02 0-1.41a.996.996 0 011.41 0c.18.18.43.29.71.29a1 1 0 001-1 1 1 0 00-1-1z"/></svg>

<?xml version="1.0" encoding="UTF-8"?><!DOCTYPE svg PUBLIC "-//W3C//DTD SVG 1.1//EN" "http://www.w3.org/Graphics/SVG/1.1/DTD/svg11.dtd"><svg xmlns="http://www.w3.org/2000/svg" xmlns:xlink="http://www.w3.org/1999/xlink" version="1.1" id="mdi-weather-windy" width="24" height="24" viewBox="0 0 24 24"><path d="M4,10A1,1 0 0,1 3,9A1,1 0 0,1 4,8H12A2,2 0 0,0 14,6A2,2 0 0,0 12,4C11.45,4 10.95,4.22 10.59,4.59C10.2,5 9.56,5 9.17,4.59C8.78,4.2 8.78,3.56 9.17,3.17C9.9,2.45 10.9,2 12,2A4,4 0 0,1 16,6A4,4 0 0,1 12,10H4M19,12A1,1 0 0,0 20,11A1,1 0 0,0 19,10C18.72,10 18.47,10.11 18.29,10.29C17.9,10.68 17.27,10.68 16.88,10.29C16.5,9.9 16.5,9.27 16.88,8.88C17.42,8.34 18.17,8 19,8A3,3 0 0,1 22,11A3,3 0 0,1 19,14H5A1,1 0 0,1 4,13A1,1 0 0,1 5,12H19M18,18H4A1,1 0 0,1 3,17A1,1 0 0,1 4,16H18A3,3 0 0,1 21,19A3,3 0 0,1 18,22C17.17,22 16.42,21.66 15.88,21.12C15.5,20.73 15.5,20.1 15.88,19.71C16.27,19.32 16.9,19.32 17.29,19.71C17.47,19.89 17.72,20 18,20A1,1 0 0,0 19,19A1,1 0 0,0 18,18Z" /></svg>
